src/images/icons/order.svg

<svg width="19.506" height="20.5" fill="none" xmlns="http://www.w3.org/2000/svg"><path d="M.75 18.75c0 .26.1.51.29.7a1 1 0 0 0 .71.3h16c.26 0 .52-.11.7-.3.19-.19.3-.44.3-.7V4.55h-18v14.2Z" stroke="#FAFAFA" stroke-width="1.5" stroke-linejoin="round"/><path d="M18.75 4.55 15.91.75H3.58L.75 4.55m12.78 3.3c0 2.09-1.7 3.8-3.78 3.8-2.09 0-3.78-1.71-3.78-3.8" stroke="#FAFAFA" stroke-width="1.5" stroke-linejoin="round"/></svg>

<svg width="19.505859" height="20.500000" viewBox="0 0 19.5059 20.5" fill="none" xmlns="http://www.w3.org/2000/svg" xmlns:xlink="http://www.w3.org/1999/xlink">
	<desc>
			Created with Pixso.
	</desc>
	<defs/>
	<path id="Vector" d="M0.75 18.75C0.75 19.01 0.85 19.26 1.04 19.45C1.23 19.64 1.48 19.75 1.75 19.75L17.75 19.75C18.01 19.75 18.27 19.64 18.45 19.45C18.64 19.26 18.75 19.01 18.75 18.75L18.75 4.55L0.75 4.55L0.75 18.75Z" stroke="#FAFAFA" stroke-opacity="1.000000" stroke-width="1.500000" stroke-linejoin="round"/>
	<path id="Vector" d="M18.75 4.55L15.91 0.75L3.58 0.75L0.75 4.55M13.53 7.85C13.53 9.94 11.83 11.65 9.75 11.65C7.66 11.65 5.97 9.94 5.97 7.85" stroke="#FAFAFA" stroke-opacity="1.000000" stroke-width="1.500000" stroke-linejoin="round"/>
</svg>
